common/resources/fonts/svg/layout-pop-out.svg

<?xml version="1.0" encoding="UTF-8" standalone="no"?>
<svg width="1024px" height="1024px" viewBox="0 0 1024 1024" version="1.1" xmlns="http://www.w3.org/2000/svg" xmlns:xlink="http://www.w3.org/1999/xlink">
    <!-- Generator: Sketch 41.2 (35397) - http://www.bohemiancoding.com/sketch -->
    <title>layout-pop-out</title>
    <desc>Created with Sketch.</desc>
    <defs></defs>
    <g id="Page-1" stroke="none" stroke-width="1" fill="none" fill-rule="evenodd">
        <g id="layout-pop-out" fill="#000000">
            <path d="M112,332.010258 C112,324.272945 118.265089,318.000614 125.991187,318.000614 L898.008813,318.000614 C905.735932,318.000614 912,324.272117 912,332.010258 L912,691.992196 C912,699.729509 905.734911,706.001841 898.008813,706.001841 L125.991187,706.001841 C118.264068,706.001841 112,699.730338 112,691.992196 L112,332.010258 Z M297.855988,803.002148 L729.592907,803.002148 L729.592907,900.002455 L297.855988,900.002455 L297.855988,803.002148 Z M297.66578,124 L729.402699,124 L729.402699,221.000307 L297.66578,221.000307 L297.66578,124 Z" id="Combined-Shape"></path>
        </g>
    </g>
</svg>

<svg width="1024" height="1024" viewBox="0 0 1024 1024">
    <path d="M112 332.01c0-7.737 6.265-14.01 13.991-14.01H898.01c7.727 0 13.991 6.272 13.991 14.01v359.982c0 7.738-6.265 14.01-13.991 14.01H125.99c-7.727 0-13.991-6.272-13.991-14.01V332.01zm185.856 470.992h431.737v97H297.856v-97zM297.666 124h431.737v97H297.666v-97z" fill-rule="evenodd"/>
</svg>
